X: 31526
T: Paddy's Perambulations
R: waltz
M: 3/4
K: Gmajor
fgf|de ed BG|A2 AG Ad|AB BA AG|A2 AG Ad|AB BA AG|
A2 AG AG|B2 c2 d2|e3 f gf|de ed BG|A2 AG Ad|
AB BA AG|A2 AG Ad|AB BA AG|A2 AG F/E/D|E3-E3|-E3:|
FGF|A2 AG AG|AB BA Bc|de dc BA|BG Bc BA|de dc BA|
BG Bc BA|B2 c2 d2|e3 f gf|de ed BG|A2 AG Ad|
AB BA AG|A2 AG Ad|AB BA AG|A2 AG ED|E3-E3-|E3:|
dBd|gd Bd Bd|gd Bd Ad|fd AF Ad|fd Bd Gd|ed Bd ed|
fd Bd Gd|Fd Gd Fd|E3 d Bd|Gd Gd Ad|Fd Fd Gd|
Ed Ed Fd|Gd Ad Ad|AB BA AG|Ad AF Gd|FG dF GA|
Bc BA Bd|Gd Gd Ad|Fd Fd Gd|Ed Ed Fd|Gd Ad Ad|
AB BA AG|A2 AG AG|B2 c2 d2|e3 f gf|de ed BG|
A2 AG Ad|AB BA AG|A2 AG Ad|AB BA AG|A2 AG F/E/D|E3-E3-|E3:|
fgf|de ed BG|A2 AG Ad|AB BA AG|A2 AG Ad|AB BA AG|
A2 AG AG|B2 c2 d2|e3 f gf|de ed BG|A2 AG Ad|
AB BA AG|A2 AG Ad|AB BA AG|A2 AG F/E/D|E3-E3-|E3:|

